X:6210
T:Gestern Abend
R:
O:Alsace - Elsass
A:
S:
B:Chansons populaires de l'Alsace
Z:transcription (partition) : eric.forgeot@caramail.com
N:Weckerlin II - p. 197
N:
M:C
L:1/8
Q:1/4=130
K:F
F G | A2 A2 (cB) A B | c2 (cB) A2 (cd) | c2 A2 (GAB) c | (B2 cB A2) z c |
c2 B2 G2 B2 | d2 (cB) A2 A c | c2 (BA) G2 B d | d2 (cB) A2 F G | A2 A A B2 d2 | 
c2 (cB) A2 A c | c2 B A (G>A B) c | (B2 cB A2) z2 ||
W:Gestern Abend spt sch's ein Jahr gewes'n, Als ich mein Schatz verlies ;
W:- Zu ihrem Fenster schaut sie naus, Und mit meiner Liewe sch alles aus,
W:Darf ich auch nicht mehr' nein zu ihr, zu ihr, 
W:Darf ich auch nicht mehr' nein zu ihr !
